icons/qappmenu-networking-no.svg

<?xml version="1.0" encoding="UTF-8"?>
<svg width="18px" height="18px" viewBox="0 0 18 18" version="1.1" xmlns="http://www.w3.org/2000/svg" xmlns:xlink="http://www.w3.org/1999/xlink">
    <title>Internet None</title>
    <g id="PROTOTYPE-—-Valentina" stroke="none" stroke-width="1" fill="none" fill-rule="evenodd">
        <g id="valentina---dark-theme" transform="translate(-415.000000, -77.000000)" fill="#6B6B6B">
            <g id="Internet-None" transform="translate(415.000000, 77.000000)">
                <path d="M16.3448276,7.86963434 C16.3448276,9.14022258 16.0137931,10.3335453 15.4262069,11.3551669 L16.6262069,12.6 C17.4951724,11.2435612 18,9.62098569 18,7.86963434 C18,5.50015898 17.0731034,3.35389507 15.5751724,1.8 L14.4,3.0190779 C15.6,4.25532591 16.3448276,5.97233704 16.3448276,7.86963434 L16.3448276,7.86963434 Z M13.9075472,10.8 C14.2216981,10.0713031 14.4,9.26881406 14.4,8.41098097 C14.4,6.87979502 13.8311321,5.49619327 12.9056604,4.5 L11.7,5.80980966 C12.3198113,6.47393851 12.7018868,7.39633968 12.7018868,8.41098097 C12.7018868,8.74304539 12.659434,9.0658858 12.5830189,9.37027818 L13.9075472,10.8 Z M5.83249116,7.04219303 C5.75472461,7.32733704 5.71152097,7.62976251 5.71152097,7.9408287 C5.71152097,8.89130874 6.10035371,9.75538151 6.7224861,10.3861546 L5.49550278,11.6131379 C4.56230419,10.6712986 3.98337544,9.37518949 3.98337544,7.9408287 C3.98337544,7.13724103 4.16483072,6.38549773 4.48453765,5.70288024 L3.21435068,4.43269328 C2.60085902,5.46093987 2.25522991,6.66200101 2.25522991,7.9408287 C2.25522991,9.85042951 3.0328954,11.578575 4.28580091,12.8228398 L3.05881758,14.0498231 C1.49484588,12.4858514 0.527084386,10.3256695 0.527084386,7.9408287 C0.527084386,6.17812026 1.05416877,4.54502274 1.96144517,3.17978777 L1.63780101e-12,1.2183426 L1.2183426,0 L17.1,15.8816574 L15.8816574,17.1 L5.83249116,7.04219303 Z" id="Fill-1"></path>
            </g>
        </g>
    </g>
</svg>

<svg xmlns="http://www.w3.org/2000/svg" width="18" height="18" viewBox="0 0 18 18">
    <g id="PROTOTYPE-—-Valentina" fill="none" fill-rule="evenodd" stroke="none" stroke-width="1">
        <g id="valentina---dark-theme" fill="#6B6B6B" transform="translate(-415 -77)">
            <g id="Internet-None" transform="translate(415 77)">
                <path id="Fill-1" d="M16.345 7.87c0 1.27-.331 2.464-.919 3.485l1.2 1.245A8.74 8.74 0 0 0 18 7.87c0-2.37-.927-4.516-2.425-6.07L14.4 3.02a6.95 6.95 0 0 1 1.945 4.85m-2.437 2.93a6 6 0 0 0 .492-2.389c0-1.531-.569-2.915-1.494-3.911L11.7 5.81a3.8 3.8 0 0 1 1.002 2.601c0 .332-.043.655-.119.96zM5.832 7.042a3.4 3.4 0 0 0-.12.899c0 .95.388 1.814 1.01 2.445l-1.226 1.227a5.2 5.2 0 0 1-1.513-3.672c0-.804.182-1.556.502-2.238l-1.27-1.27a6.8 6.8 0 0 0-.96 3.508c0 1.91.778 3.638 2.03 4.882L3.06 14.05A8.6 8.6 0 0 1 .527 7.94c0-1.762.527-3.395 1.434-4.76L0 1.218 1.218 0 17.1 15.882 15.882 17.1z"/>
            </g>
        </g>
    </g>
</svg>
